X: 163
T:Monaghan Jig, The
M:6/8
L:1/8
R:jig
S:Philippe Varlet
Z: Posted by Philippe Varlet 7/99
K:D
BGE ~E3|BGE FGA|BGE ~E3|AFD FGA|
BGE ~E3|BGE FGA|dcB ABG|FDF AFD:||
EGB efg|fed eBG|EGB eBG|FDF AGF|
EGB e2g|fed edc|dcB ABG|FDF AFD:||
~g3 e2f|geg bge|~g3 efg|~f3 dfa|
~g3 e2f|geg bge|dcB ABG|FDF AFD:||
EGB eBG|BGE FAF|EGB eBG|FDF AGF|
EGB GBd|Bdg egb|fed ABG|FDF AGF:||
